icon-themes/sifr_svg/cmd/lc_datainrows.svg

<svg xmlns="http://www.w3.org/2000/svg" viewBox="0 0 24 24">
  <path
     style="fill:#555753"
     d="m 3,21 h 18 v -5 h 2 V 8 H 21 V 3 H 3 V 8 H 1 v 8 h 2 z m 2,-2 v -3 h 4 v 3 z M 3,14 v -4 h 5 v 4 z M 5,8 V 5 h 4 v 3 z m 5,11 v -3 h 4 v 3 z m 0,-5 v -4 h 4 v 4 z M 10,8 V 5 h 4 v 3 z m 5,11 v -3 h 4 v 3 z m 1,-5 v -4 h 5 v 4 z M 15,8 V 5 h 4 v 3 z"
     />
</svg>

<svg xmlns="http://www.w3.org/2000/svg" viewBox="0 0 24 24">
 <path
     style="fill:#555753"
     d="M 3 3 L 3 8 L 1 8 L 1 16 L 3 16 L 3 21 L 21 21 L 21 16 L 23 16 L 23 8 L 21 8 L 21 3 L 3 3 z M 5 5 L 9 5 L 9 8 L 5 8 L 5 5 z M 10 5 L 14 5 L 14 8 L 10 8 L 10 5 z M 15 5 L 19 5 L 19 8 L 15 8 L 15 5 z M 2 9 L 8 9 L 8 15 L 2 15 L 2 9 z M 9 9 L 15 9 L 15 15 L 9 15 L 9 9 z M 16 9 L 22 9 L 22 15 L 16 15 L 16 9 z M 5 16 L 9 16 L 9 19 L 5 19 L 5 16 z M 10 16 L 14 16 L 14 19 L 10 19 L 10 16 z M 15 16 L 19 16 L 19 19 L 15 19 L 15 16 z "
     />
 </svg>
